src/assets/svg/icons/fa/nuevos/classic/thin/star-half classic thin.svg

<svg xmlns="http://www.w3.org/2000/svg" viewBox="0 0 576 512"><path d="M212.1 161.8C209.8 166.6 205.3 169.9 200.1 170.7L46.83 193.3C43.83 193.7 41.34 195.8 40.4 198.7C39.46 201.6 40.22 204.8 42.37 206.9L31.11 218.3C24.65 211.9 22.36 202.4 25.2 193.7C28.03 185.1 35.5 178.8 44.49 177.5L197.7 154.8L266.3 13.52C271.2 3.46 282.4-1.893 293.3 .6127C304.2 3.119 311.9 12.82 311.9 24V408.7C311.9 417.5 307.1 425.7 299.2 429.8L150.1 509.1C142.9 513.4 133.1 512.7 125.6 507.4C118.2 502.1 114.5 492.1 115.1 483.9L142.2 328.4L31.11 218.3L42.37 206.9L153.5 316.1C157.2 320.7 158.9 325.9 158 331L131.8 486.6C131.3 489.6 132.5 492.6 134.1 494.4C137.5 496.2 140.7 496.4 143.4 494.1L291.7 415.7C294.3 414.3 295.9 411.6 295.9 408.7V24C295.9 20.27 293.4 17.04 289.7 16.21C286.1 15.37 282.4 17.16 280.7 20.51L212.1 161.8z"/></svg>

<svg xmlns="http://www.w3.org/2000/svg" viewBox="0 0 576 512"><!--! Font Awesome Pro 6.4.0 by @fontawesome - https://fontawesome.com License - https://fontawesome.com/license (Commercial License) Copyright 2023 Fonticons, Inc. --><path d="M212.1 161.8c-2.3 4.8-6.8 8.1-12.1 8.8L46.8 193.3c-3 .4-5.5 2.5-6.4 5.4s-.2 6 2 8.2L31.1 218.3c-6.5-6.4-8.7-15.9-5.9-24.5s10.3-14.9 19.3-16.3l153.2-22.6L266.3 13.5c4.9-10.1 16.1-15.4 27-12.9s18.6 12.2 18.6 23.4V408.7c0 8.9-4.9 17-12.7 21.2L151 509.1c-8.1 4.3-17.9 3.7-25.3-1.7s-11.2-14.5-9.7-23.5l26.2-155.6L31.1 218.3l11.3-11.4L153.5 317c3.7 3.7 5.4 8.9 4.5 14L131.8 486.6c-.5 3 .7 6 3.2 7.8s5.8 2 8.4 .6l148.3-79.2c2.6-1.4 4.2-4.1 4.2-7.1V24c0-3.7-2.6-7-6.2-7.8s-7.4 .9-9 4.3L212.1 161.8z"/></svg>
